X:50
T:Seven Step Polka
Z:Jack Campin, http://www.campin.me.uk/
F:Jack Campin's Nine-Note Tunebook
% last edit 03-02-2013
G:Shetland set dance
M:2/4
L:1/16
Q:1/4=96
K:F % usually in G
F2F2 F2F2|EFGE F2C2|A2A2 A2A2|GABG A2F2|d2d2 c3A|B2B2 A3F  |
D2G2 G3F |ECDE FGAc|d2d2 c3A |B2B2 A3F |D2G2 G3F|ECDE F2C2:|

